report_00007_2020-12-11T15:55:29.892Z/max-potential-fid/comparison/sorted/12_vs_13.svg

<svg width="640" height="500" xmlns="http://www.w3.org/2000/svg" xmlns:xlink="http://www.w3.org/1999/xlink"><path fill="#fff" d="M0 0h640v500H0z"/><defs><path id="d" stroke-width=".222" stroke="currentColor" d="M-1-1h2v2h-2z"/><path id="b" stroke-width=".222" stroke="currentColor" d="M0-1.33l-1.33 2h2.66z"/><path id="f" stroke-width=".222" stroke="currentColor" d="M0 1.33L1.265.411.782-1.067l-1.564-.009-.483 1.487z"/><use xlink:href="#b" id="c" stroke="currentColor" transform="rotate(180)"/><use xlink:href="#d" id="e" stroke="currentColor" transform="rotate(45)"/><circle id="a" stroke-width=".222" stroke="currentColor" cx="0" cy="0" r="1"/></defs><g fill="none" color="#000" stroke="currentColor"><path stroke="#000" d="M45.6 384.8h9m560.4 0h-9"/><text transform="translate(37.3 388.7)" stroke="none" fill="#000" font-family="Arial" font-size="12" text-anchor="end"><tspan>16</tspan></text></g><g fill="none" color="#000" stroke="currentColor"><path stroke="#000" d="M45.6 329.5h9m560.4 0h-9"/><text transform="translate(37.3 333.4)" stroke="none" fill="#000" font-family="Arial" font-size="12" text-anchor="end"><tspan>18</tspan></text></g><g fill="none" color="#000" stroke="currentColor"><path stroke="#000" d="M45.6 274.2h9m560.4 0h-9"/><text transform="translate(37.3 278.1)" stroke="none" fill="#000" font-family="Arial" font-size="12" text-anchor="end"><tspan>20</tspan></text></g><g fill="none" color="#000" stroke="currentColor"><path stroke="#000" d="M45.6 218.9h9m560.4 0h-9"/><text transform="translate(37.3 222.8)" stroke="none" fill="#000" font-family="Arial" font-size="12" text-anchor="end"><tspan>22</tspan></text></g><g fill="none" color="#000" stroke="currentColor"><path stroke="#000" d="M45.6 163.6h9m560.4 0h-9"/><text transform="translate(37.3 167.5)" stroke="none" fill="#000" font-family="Arial" font-size="12" text-anchor="end"><tspan>24</tspan></text></g><g fill="none" color="#000" stroke="currentColor"><path stroke="#000" d="M45.6 108.3h9m560.4 0h-9"/><text transform="translate(37.3 112.2)" stroke="none" fill="#000" font-family="Arial" font-size="12" text-anchor="end"><tspan>26</tspan></text></g><g fill="none" color="#000" stroke="currentColor"><path stroke="#000" d="M45.6 52.9h9m560.4 0h-9"/><text transform="translate(37.3 56.8)" stroke="none" fill="#000" font-family="Arial" font-size="12" text-anchor="end"><tspan>28</tspan></text></g><g fill="none" color="#000" stroke="currentColor"><path stroke="#000" d="M45.6 392v-9m0-364.9v9"/><text transform="translate(45.6 413.9)" stroke="none" fill="#000" font-family="Arial" font-size="12" text-anchor="middle"><tspan>0</tspan></text></g><g fill="none" color="#000" stroke="currentColor"><path stroke="#000" d="M103.1 392v-9m0-364.9v9"/><text transform="translate(103.1 413.9)" stroke="none" fill="#000" font-family="Arial" font-size="12" text-anchor="middle"><tspan>10</tspan></text></g><g fill="none" color="#000" stroke="currentColor"><path stroke="#000" d="M160.6 392v-9m0-364.9v9"/><text transform="translate(160.6 413.9)" stroke="none" fill="#000" font-family="Arial" font-size="12" text-anchor="middle"><tspan>20</tspan></text></g><g fill="none" color="#000" stroke="currentColor"><path stroke="#000" d="M218.1 392v-9m0-364.9v9"/><text transform="translate(218.1 413.9)" stroke="none" fill="#000" font-family="Arial" font-size="12" text-anchor="middle"><tspan>30</tspan></text></g><g fill="none" color="#000" stroke="currentColor"><path stroke="#000" d="M275.7 392v-9m0-364.9v9"/><text transform="translate(275.7 413.9)" stroke="none" fill="#000" font-family="Arial" font-size="12" text-anchor="middle"><tspan>40</tspan></text></g><g fill="none" color="#000" stroke="currentColor"><path stroke="#000" d="M333.2 392v-9m0-364.9v9"/><text transform="translate(333.2 413.9)" stroke="none" fill="#000" font-family="Arial" font-size="12" text-anchor="middle"><tspan>50</tspan></text></g><g fill="none" color="#000" stroke="currentColor"><path stroke="#000" d="M390.7 392v-9m0-364.9v9"/><text transform="translate(390.7 413.9)" stroke="none" fill="#000" font-family="Arial" font-size="12" text-anchor="middle"><tspan>60</tspan></text></g><g fill="none" color="#000" stroke="currentColor"><path stroke="#000" d="M448.2 392v-9m0-364.9v9"/><text transform="translate(448.2 413.9)" stroke="none" fill="#000" font-family="Arial" font-size="12" text-anchor="middle"><tspan>70</tspan></text></g><g fill="none" color="#000" stroke="currentColor"><path stroke="#000" d="M505.7 392v-9m0-364.9v9"/><text transform="translate(505.7 413.9)" stroke="none" fill="#000" font-family="Arial" font-size="12" text-anchor="middle"><tspan>80</tspan></text></g><g fill="none" color="#000" stroke="currentColor"><path stroke="#000" d="M563.2 392v-9m0-364.9v9"/><text transform="translate(563.2 413.9)" stroke="none" fill="#000" font-family="Arial" font-size="12" text-anchor="middle"><tspan>90</tspan></text></g><path stroke="#000" d="M45.6 18.1V392H615V18.1H45.6z" fill="none" color="#000"/><text transform="translate(525 431.9)" stroke="none" fill="#000" font-family="Arial" font-size="12" text-anchor="end" color="#000"><tspan>pages+cached+noexternal+nofonts+nosvg+noimg+nocss</tspan></text><path stroke="#9400D3" d="M533.3 428h42.2M45.6 384.8h563.6L615 25.3" fill="none" color="#000"/><text transform="translate(525 449.9)" stroke="none" fill="#000" font-family="Arial" font-size="12" text-anchor="end" color="#000"><tspan>pages+cached+noexternal+nofonts+nosvg+noimg+nocss+nojs</tspan></text><path stroke="#009E73" d="M533.3 446h42.2M45.6 384.8H615" fill="none" color="#000"/><text transform="translate(525 467.9)" stroke="none" fill="#000" font-family="Arial" font-size="12" text-anchor="end" color="#000"><tspan>score p10=130</tspan></text><path stroke="#56B4E9" d="M533.3 464h42.2" fill="none" color="#000"/><g><text transform="translate(525 485.9)" stroke="none" fill="#000" font-family="Arial" font-size="12" text-anchor="end" color="#000"><tspan>score median=250</tspan></text><path stroke="#E69F00" d="M533.3 482h42.2" fill="none" color="#000"/></g><g fill="none" color="#000" stroke="currentColor"><path stroke="#000" d="M45.6 18.1V392H615V18.1H45.6z"/></g></svg>

<?xml version="1.0" encoding="utf-8"  standalone="no"?>
<svg 
 width="640" height="500"
 viewBox="0 0 640 500"
 xmlns="http://www.w3.org/2000/svg"
 xmlns:xlink="http://www.w3.org/1999/xlink"
>

<title>Gnuplot</title>
<desc>Produced by GNUPLOT 5.4 patchlevel 0 </desc>

<g id="gnuplot_canvas">

<rect x="0" y="0" width="640" height="500" fill="#ffffff"/>
<defs>

	<circle id='gpDot' r='0.5' stroke-width='0.5' stroke='currentColor'/>
	<path id='gpPt0' stroke-width='0.222' stroke='currentColor' d='M-1,0 h2 M0,-1 v2'/>
	<path id='gpPt1' stroke-width='0.222' stroke='currentColor' d='M-1,-1 L1,1 M1,-1 L-1,1'/>
	<path id='gpPt2' stroke-width='0.222' stroke='currentColor' d='M-1,0 L1,0 M0,-1 L0,1 M-1,-1 L1,1 M-1,1 L1,-1'/>
	<rect id='gpPt3' stroke-width='0.222' stroke='currentColor' x='-1' y='-1' width='2' height='2'/>
	<rect id='gpPt4' stroke-width='0.222' stroke='currentColor' fill='currentColor' x='-1' y='-1' width='2' height='2'/>
	<circle id='gpPt5' stroke-width='0.222' stroke='currentColor' cx='0' cy='0' r='1'/>
	<use xlink:href='#gpPt5' id='gpPt6' fill='currentColor' stroke='none'/>
	<path id='gpPt7' stroke-width='0.222' stroke='currentColor' d='M0,-1.33 L-1.33,0.67 L1.33,0.67 z'/>
	<use xlink:href='#gpPt7' id='gpPt8' fill='currentColor' stroke='none'/>
	<use xlink:href='#gpPt7' id='gpPt9' stroke='currentColor' transform='rotate(180)'/>
	<use xlink:href='#gpPt9' id='gpPt10' fill='currentColor' stroke='none'/>
	<use xlink:href='#gpPt3' id='gpPt11' stroke='currentColor' transform='rotate(45)'/>
	<use xlink:href='#gpPt11' id='gpPt12' fill='currentColor' stroke='none'/>
	<path id='gpPt13' stroke-width='0.222' stroke='currentColor' d='M0,1.330 L1.265,0.411 L0.782,-1.067 L-0.782,-1.076 L-1.265,0.411 z'/>
	<use xlink:href='#gpPt13' id='gpPt14' fill='currentColor' stroke='none'/>
	<filter id='textbox' filterUnits='objectBoundingBox' x='0' y='0' height='1' width='1'>
	  <feFlood flood-color='#FFFFFF' flood-opacity='1' result='bgnd'/>
	  <feComposite in='SourceGraphic' in2='bgnd' operator='atop'/>
	</filter>
	<filter id='greybox' filterUnits='objectBoundingBox' x='0' y='0' height='1' width='1'>
	  <feFlood flood-color='lightgrey' flood-opacity='1' result='grey'/>
	  <feComposite in='SourceGraphic' in2='grey' operator='atop'/>
	</filter>
</defs>
<g fill="none" color="#FFFFFF" stroke="black" stroke-width="1.00" stroke-linecap="butt" stroke-linejoin="miter">
</g>
<g fill="none" color="black" stroke="currentColor" stroke-width="1.00" stroke-linecap="butt" stroke-linejoin="miter">
	<path stroke='black'  d='M45.6,384.8 L54.6,384.8 M615.0,384.8 L606.0,384.8  '/>	<g transform="translate(37.3,388.7)" stroke="none" fill="black" font-family="Arial" font-size="12.00"  text-anchor="end">
		<text><tspan font-family="Arial" > 16</tspan></text>
	</g>
</g>
<g fill="none" color="black" stroke="currentColor" stroke-width="1.00" stroke-linecap="butt" stroke-linejoin="miter">
	<path stroke='black'  d='M45.6,329.5 L54.6,329.5 M615.0,329.5 L606.0,329.5  '/>	<g transform="translate(37.3,333.4)" stroke="none" fill="black" font-family="Arial" font-size="12.00"  text-anchor="end">
		<text><tspan font-family="Arial" > 18</tspan></text>
	</g>
</g>
<g fill="none" color="black" stroke="currentColor" stroke-width="1.00" stroke-linecap="butt" stroke-linejoin="miter">
	<path stroke='black'  d='M45.6,274.2 L54.6,274.2 M615.0,274.2 L606.0,274.2  '/>	<g transform="translate(37.3,278.1)" stroke="none" fill="black" font-family="Arial" font-size="12.00"  text-anchor="end">
		<text><tspan font-family="Arial" > 20</tspan></text>
	</g>
</g>
<g fill="none" color="black" stroke="currentColor" stroke-width="1.00" stroke-linecap="butt" stroke-linejoin="miter">
	<path stroke='black'  d='M45.6,218.9 L54.6,218.9 M615.0,218.9 L606.0,218.9  '/>	<g transform="translate(37.3,222.8)" stroke="none" fill="black" font-family="Arial" font-size="12.00"  text-anchor="end">
		<text><tspan font-family="Arial" > 22</tspan></text>
	</g>
</g>
<g fill="none" color="black" stroke="currentColor" stroke-width="1.00" stroke-linecap="butt" stroke-linejoin="miter">
	<path stroke='black'  d='M45.6,163.6 L54.6,163.6 M615.0,163.6 L606.0,163.6  '/>	<g transform="translate(37.3,167.5)" stroke="none" fill="black" font-family="Arial" font-size="12.00"  text-anchor="end">
		<text><tspan font-family="Arial" > 24</tspan></text>
	</g>
</g>
<g fill="none" color="black" stroke="currentColor" stroke-width="1.00" stroke-linecap="butt" stroke-linejoin="miter">
	<path stroke='black'  d='M45.6,108.3 L54.6,108.3 M615.0,108.3 L606.0,108.3  '/>	<g transform="translate(37.3,112.2)" stroke="none" fill="black" font-family="Arial" font-size="12.00"  text-anchor="end">
		<text><tspan font-family="Arial" > 26</tspan></text>
	</g>
</g>
<g fill="none" color="black" stroke="currentColor" stroke-width="1.00" stroke-linecap="butt" stroke-linejoin="miter">
	<path stroke='black'  d='M45.6,52.9 L54.6,52.9 M615.0,52.9 L606.0,52.9  '/>	<g transform="translate(37.3,56.8)" stroke="none" fill="black" font-family="Arial" font-size="12.00"  text-anchor="end">
		<text><tspan font-family="Arial" > 28</tspan></text>
	</g>
</g>
<g fill="none" color="black" stroke="currentColor" stroke-width="1.00" stroke-linecap="butt" stroke-linejoin="miter">
	<path stroke='black'  d='M45.6,392.0 L45.6,383.0 M45.6,18.1 L45.6,27.1  '/>	<g transform="translate(45.6,413.9)" stroke="none" fill="black" font-family="Arial" font-size="12.00"  text-anchor="middle">
		<text><tspan font-family="Arial" > 0</tspan></text>
	</g>
</g>
<g fill="none" color="black" stroke="currentColor" stroke-width="1.00" stroke-linecap="butt" stroke-linejoin="miter">
	<path stroke='black'  d='M103.1,392.0 L103.1,383.0 M103.1,18.1 L103.1,27.1  '/>	<g transform="translate(103.1,413.9)" stroke="none" fill="black" font-family="Arial" font-size="12.00"  text-anchor="middle">
		<text><tspan font-family="Arial" > 10</tspan></text>
	</g>
</g>
<g fill="none" color="black" stroke="currentColor" stroke-width="1.00" stroke-linecap="butt" stroke-linejoin="miter">
	<path stroke='black'  d='M160.6,392.0 L160.6,383.0 M160.6,18.1 L160.6,27.1  '/>	<g transform="translate(160.6,413.9)" stroke="none" fill="black" font-family="Arial" font-size="12.00"  text-anchor="middle">
		<text><tspan font-family="Arial" > 20</tspan></text>
	</g>
</g>
<g fill="none" color="black" stroke="currentColor" stroke-width="1.00" stroke-linecap="butt" stroke-linejoin="miter">
	<path stroke='black'  d='M218.1,392.0 L218.1,383.0 M218.1,18.1 L218.1,27.1  '/>	<g transform="translate(218.1,413.9)" stroke="none" fill="black" font-family="Arial" font-size="12.00"  text-anchor="middle">
		<text><tspan font-family="Arial" > 30</tspan></text>
	</g>
</g>
<g fill="none" color="black" stroke="currentColor" stroke-width="1.00" stroke-linecap="butt" stroke-linejoin="miter">
	<path stroke='black'  d='M275.7,392.0 L275.7,383.0 M275.7,18.1 L275.7,27.1  '/>	<g transform="translate(275.7,413.9)" stroke="none" fill="black" font-family="Arial" font-size="12.00"  text-anchor="middle">
		<text><tspan font-family="Arial" > 40</tspan></text>
	</g>
</g>
<g fill="none" color="black" stroke="currentColor" stroke-width="1.00" stroke-linecap="butt" stroke-linejoin="miter">
	<path stroke='black'  d='M333.2,392.0 L333.2,383.0 M333.2,18.1 L333.2,27.1  '/>	<g transform="translate(333.2,413.9)" stroke="none" fill="black" font-family="Arial" font-size="12.00"  text-anchor="middle">
		<text><tspan font-family="Arial" > 50</tspan></text>
	</g>
</g>
<g fill="none" color="black" stroke="currentColor" stroke-width="1.00" stroke-linecap="butt" stroke-linejoin="miter">
	<path stroke='black'  d='M390.7,392.0 L390.7,383.0 M390.7,18.1 L390.7,27.1  '/>	<g transform="translate(390.7,413.9)" stroke="none" fill="black" font-family="Arial" font-size="12.00"  text-anchor="middle">
		<text><tspan font-family="Arial" > 60</tspan></text>
	</g>
</g>
<g fill="none" color="black" stroke="currentColor" stroke-width="1.00" stroke-linecap="butt" stroke-linejoin="miter">
	<path stroke='black'  d='M448.2,392.0 L448.2,383.0 M448.2,18.1 L448.2,27.1  '/>	<g transform="translate(448.2,413.9)" stroke="none" fill="black" font-family="Arial" font-size="12.00"  text-anchor="middle">
		<text><tspan font-family="Arial" > 70</tspan></text>
	</g>
</g>
<g fill="none" color="black" stroke="currentColor" stroke-width="1.00" stroke-linecap="butt" stroke-linejoin="miter">
	<path stroke='black'  d='M505.7,392.0 L505.7,383.0 M505.7,18.1 L505.7,27.1  '/>	<g transform="translate(505.7,413.9)" stroke="none" fill="black" font-family="Arial" font-size="12.00"  text-anchor="middle">
		<text><tspan font-family="Arial" > 80</tspan></text>
	</g>
</g>
<g fill="none" color="black" stroke="currentColor" stroke-width="1.00" stroke-linecap="butt" stroke-linejoin="miter">
	<path stroke='black'  d='M563.2,392.0 L563.2,383.0 M563.2,18.1 L563.2,27.1  '/>	<g transform="translate(563.2,413.9)" stroke="none" fill="black" font-family="Arial" font-size="12.00"  text-anchor="middle">
		<text><tspan font-family="Arial" > 90</tspan></text>
	</g>
</g>
<g fill="none" color="black" stroke="currentColor" stroke-width="1.00" stroke-linecap="butt" stroke-linejoin="miter">
</g>
<g fill="none" color="black" stroke="currentColor" stroke-width="1.00" stroke-linecap="butt" stroke-linejoin="miter">
	<path stroke='black'  d='M45.6,18.1 L45.6,392.0 L615.0,392.0 L615.0,18.1 L45.6,18.1 Z  '/></g>
<g fill="none" color="black" stroke="currentColor" stroke-width="1.00" stroke-linecap="butt" stroke-linejoin="miter">
</g>
	<g id="gnuplot_plot_1" ><title>pages+cached+noexternal+nofonts+nosvg+noimg+nocss</title>
<g fill="none" color="black" stroke="currentColor" stroke-width="1.00" stroke-linecap="butt" stroke-linejoin="miter">
	<g transform="translate(525.0,431.9)" stroke="none" fill="black" font-family="Arial" font-size="12.00"  text-anchor="end">
		<text><tspan font-family="Arial" >pages+cached+noexternal+nofonts+nosvg+noimg+nocss</tspan></text>
	</g>
</g>
<g fill="none" color="black" stroke="currentColor" stroke-width="1.00" stroke-linecap="butt" stroke-linejoin="miter">
	<path stroke='rgb(148,   0, 211)'  d='M533.3,428.0 L575.5,428.0 M45.6,384.8 L51.4,384.8 L57.1,384.8 L62.9,384.8 L68.6,384.8 L74.4,384.8
		L80.1,384.8 L85.9,384.8 L91.6,384.8 L97.4,384.8 L103.1,384.8 L108.9,384.8 L114.6,384.8 L120.4,384.8
		L126.1,384.8 L131.9,384.8 L137.6,384.8 L143.4,384.8 L149.1,384.8 L154.9,384.8 L160.6,384.8 L166.4,384.8
		L172.1,384.8 L177.9,384.8 L183.6,384.8 L189.4,384.8 L195.1,384.8 L200.9,384.8 L206.6,384.8 L212.4,384.8
		L218.1,384.8 L223.9,384.8 L229.6,384.8 L235.4,384.8 L241.2,384.8 L246.9,384.8 L252.7,384.8 L258.4,384.8
		L264.2,384.8 L269.9,384.8 L275.7,384.8 L281.4,384.8 L287.2,384.8 L292.9,384.8 L298.7,384.8 L304.4,384.8
		L310.2,384.8 L315.9,384.8 L321.7,384.8 L327.4,384.8 L333.2,384.8 L338.9,384.8 L344.7,384.8 L350.4,384.8
		L356.2,384.8 L361.9,384.8 L367.7,384.8 L373.4,384.8 L379.2,384.8 L384.9,384.8 L390.7,384.8 L396.4,384.8
		L402.2,384.8 L407.9,384.8 L413.7,384.8 L419.4,384.8 L425.2,384.8 L431.0,384.8 L436.7,384.8 L442.5,384.8
		L448.2,384.8 L454.0,384.8 L459.7,384.8 L465.5,384.8 L471.2,384.8 L477.0,384.8 L482.7,384.8 L488.5,384.8
		L494.2,384.8 L500.0,384.8 L505.7,384.8 L511.5,384.8 L517.2,384.8 L523.0,384.8 L528.7,384.8 L534.5,384.8
		L540.2,384.8 L546.0,384.8 L551.7,384.8 L557.5,384.8 L563.2,384.8 L569.0,384.8 L574.7,384.8 L580.5,384.8
		L586.2,384.8 L592.0,384.8 L597.7,384.8 L603.5,384.8 L609.2,384.8 L615.0,25.3  '/></g>
	</g>
	<g id="gnuplot_plot_2" ><title>pages+cached+noexternal+nofonts+nosvg+noimg+nocss+nojs</title>
<g fill="none" color="black" stroke="currentColor" stroke-width="1.00" stroke-linecap="butt" stroke-linejoin="miter">
	<g transform="translate(525.0,449.9)" stroke="none" fill="black" font-family="Arial" font-size="12.00"  text-anchor="end">
		<text><tspan font-family="Arial" >pages+cached+noexternal+nofonts+nosvg+noimg+nocss+nojs</tspan></text>
	</g>
</g>
<g fill="none" color="black" stroke="currentColor" stroke-width="1.00" stroke-linecap="butt" stroke-linejoin="miter">
	<path stroke='rgb(  0, 158, 115)'  d='M533.3,446.0 L575.5,446.0 M45.6,384.8 L51.4,384.8 L57.1,384.8 L62.9,384.8 L68.6,384.8 L74.4,384.8
		L80.1,384.8 L85.9,384.8 L91.6,384.8 L97.4,384.8 L103.1,384.8 L108.9,384.8 L114.6,384.8 L120.4,384.8
		L126.1,384.8 L131.9,384.8 L137.6,384.8 L143.4,384.8 L149.1,384.8 L154.9,384.8 L160.6,384.8 L166.4,384.8
		L172.1,384.8 L177.9,384.8 L183.6,384.8 L189.4,384.8 L195.1,384.8 L200.9,384.8 L206.6,384.8 L212.4,384.8
		L218.1,384.8 L223.9,384.8 L229.6,384.8 L235.4,384.8 L241.2,384.8 L246.9,384.8 L252.7,384.8 L258.4,384.8
		L264.2,384.8 L269.9,384.8 L275.7,384.8 L281.4,384.8 L287.2,384.8 L292.9,384.8 L298.7,384.8 L304.4,384.8
		L310.2,384.8 L315.9,384.8 L321.7,384.8 L327.4,384.8 L333.2,384.8 L338.9,384.8 L344.7,384.8 L350.4,384.8
		L356.2,384.8 L361.9,384.8 L367.7,384.8 L373.4,384.8 L379.2,384.8 L384.9,384.8 L390.7,384.8 L396.4,384.8
		L402.2,384.8 L407.9,384.8 L413.7,384.8 L419.4,384.8 L425.2,384.8 L431.0,384.8 L436.7,384.8 L442.5,384.8
		L448.2,384.8 L454.0,384.8 L459.7,384.8 L465.5,384.8 L471.2,384.8 L477.0,384.8 L482.7,384.8 L488.5,384.8
		L494.2,384.8 L500.0,384.8 L505.7,384.8 L511.5,384.8 L517.2,384.8 L523.0,384.8 L528.7,384.8 L534.5,384.8
		L540.2,384.8 L546.0,384.8 L551.7,384.8 L557.5,384.8 L563.2,384.8 L569.0,384.8 L574.7,384.8 L580.5,384.8
		L586.2,384.8 L592.0,384.8 L597.7,384.8 L603.5,384.8 L609.2,384.8 L615.0,384.8  '/></g>
	</g>
	<g id="gnuplot_plot_3" ><title>score p10=130</title>
<g fill="none" color="black" stroke="currentColor" stroke-width="1.00" stroke-linecap="butt" stroke-linejoin="miter">
	<g transform="translate(525.0,467.9)" stroke="none" fill="black" font-family="Arial" font-size="12.00"  text-anchor="end">
		<text><tspan font-family="Arial" >score p10=130</tspan></text>
	</g>
</g>
<g fill="none" color="black" stroke="currentColor" stroke-width="1.00" stroke-linecap="butt" stroke-linejoin="miter">
	<path stroke='rgb( 86, 180, 233)'  d='M533.3,464.0 L575.5,464.0  '/></g>
	</g>
	<g id="gnuplot_plot_4" ><title>score median=250</title>
<g fill="none" color="black" stroke="currentColor" stroke-width="1.00" stroke-linecap="butt" stroke-linejoin="miter">
	<g transform="translate(525.0,485.9)" stroke="none" fill="black" font-family="Arial" font-size="12.00"  text-anchor="end">
		<text><tspan font-family="Arial" >score median=250</tspan></text>
	</g>
</g>
<g fill="none" color="black" stroke="currentColor" stroke-width="1.00" stroke-linecap="butt" stroke-linejoin="miter">
	<path stroke='rgb(230, 159,   0)'  d='M533.3,482.0 L575.5,482.0  '/></g>
	</g>
<g fill="none" color="#FFFFFF" stroke="rgb(230, 159,   0)" stroke-width="2.00" stroke-linecap="butt" stroke-linejoin="miter">
</g>
<g fill="none" color="black" stroke="currentColor" stroke-width="2.00" stroke-linecap="butt" stroke-linejoin="miter">
</g>
<g fill="none" color="black" stroke="black" stroke-width="1.00" stroke-linecap="butt" stroke-linejoin="miter">
</g>
<g fill="none" color="black" stroke="currentColor" stroke-width="1.00" stroke-linecap="butt" stroke-linejoin="miter">
	<path stroke='black'  d='M45.6,18.1 L45.6,392.0 L615.0,392.0 L615.0,18.1 L45.6,18.1 Z  '/></g>
<g fill="none" color="black" stroke="currentColor" stroke-width="1.00" stroke-linecap="butt" stroke-linejoin="miter">
</g>
</g>
</svg>
